styles/2/Numix/22/places/orange-folder-documents.svg

<?xml version="1.0" encoding="UTF-8" standalone="no"?>
<svg
   xmlns:dc="http://purl.org/dc/elements/1.1/"
   xmlns:cc="http://creativecommons.org/ns#"
   xmlns:rdf="http://www.w3.org/1999/02/22-rdf-syntax-ns#"
   xmlns:svg="http://www.w3.org/2000/svg"
   xmlns="http://www.w3.org/2000/svg"
   xmlns:sodipodi="http://sodipodi.sourceforge.net/DTD/sodipodi-0.dtd"
   xmlns:inkscape="http://www.inkscape.org/namespaces/inkscape"
   width="22"
   height="22"
   viewBox="0 0 22 22"
   id="svg2"
   version="1.1"
   inkscape:version="0.91 r"
   sodipodi:docname="orange-folder-documents.svg">
  <metadata
     id="metadata16">
    <rdf:RDF>
      <cc:Work
         rdf:about="">
        <dc:format>image/svg+xml</dc:format>
        <dc:type
           rdf:resource="http://purl.org/dc/dcmitype/StillImage" />
      </cc:Work>
    </rdf:RDF>
  </metadata>
  <defs
     id="defs14" />
  <sodipodi:namedview
     pagecolor="#ffffff"
     bordercolor="#666666"
     borderopacity="1"
     objecttolerance="10"
     gridtolerance="10"
     guidetolerance="10"
     inkscape:pageopacity="0"
     inkscape:pageshadow="2"
     inkscape:window-width="1280"
     inkscape:window-height="998"
     id="namedview12"
     showgrid="true"
     inkscape:zoom="15.170654"
     inkscape:cx="25.006784"
     inkscape:cy="6.197223"
     inkscape:window-x="0"
     inkscape:window-y="0"
     inkscape:window-maximized="1"
     inkscape:current-layer="svg2">
    <inkscape:grid
       type="xygrid"
       id="grid3001" />
  </sodipodi:namedview>
  <path
     style="font-size:medium;font-style:normal;font-variant:normal;font-weight:normal;font-stretch:normal;text-indent:0;text-align:start;text-decoration:none;line-height:normal;letter-spacing:normal;word-spacing:normal;text-transform:none;direction:ltr;block-progression:tb;writing-mode:lr-tb;text-anchor:start;baseline-shift:baseline;color:#000000;fill:#f57c00;fill-opacity:1;fill-rule:nonzero;stroke:none;stroke-width:1.03313816;marker:none;visibility:visible;display:inline;overflow:visible;enable-background:accumulate;font-family:Sans;-inkscape-font-specification:Sans"
     d="m 3.0000115,2.0000003 c -0.5473306,0 -1,0.4096882 -1,1 l 0,1 -1,0 c -0.50192719,0 -0.999999988889,0.3847489 -0.999999988889,1 -1.51999999e-5,4.5937493 0,9.4062497 0,13.9999997 0,0.545771 0.493417298889,1 0.999999988889,1 l 20.0000005,0 c 0.515688,0 1,-0.437034 1,-1 l 0,-12.9999997 c 0,-0.5770209 -0.423105,-1 -1,-1 l -2,0 0,-2 c 0,-0.4874255 -0.401824,-1 -1,-1 z"
     id="path2995"
     inkscape:connector-curvature="0"
     sodipodi:nodetypes="ccccccssssscssc" />
  <path
     style="font-size:medium;font-style:normal;font-variant:normal;font-weight:normal;font-stretch:normal;text-indent:0;text-align:start;text-decoration:none;line-height:normal;letter-spacing:normal;word-spacing:normal;text-transform:none;direction:ltr;block-progression:tb;writing-mode:lr-tb;text-anchor:start;baseline-shift:baseline;color:#000000;fill:#000000;fill-opacity:0.32156863;fill-rule:nonzero;stroke:none;stroke-width:1.03313816;marker:none;visibility:visible;display:inline;overflow:visible;enable-background:accumulate;font-family:Sans;-inkscape-font-specification:Sans"
     d="m 3.0000115,2.0000003 c -0.5444543,0 -1,0.3988699 -1,1 l 0,1 -1,0 c -0.50675939,0 -0.999999988889,0.3964676 -0.999999988889,1 -2.59e-5,4.5937491 0,9.4062497 0,13.9999997 0,0.487177 0.419198598889,1 0.999999988889,1 l 20.0000005,0 c 0.521212,0 1,-0.442558 1,-1 l 0,-12.9999997 c 0,-0.5731146 -0.393904,-1 -1,-1 l -2,0 0,-2 c 0,-0.5585119 -0.457433,-1 -1,-1 z m 10.0000005,3 0,1 8,0 0,12.9999997 -20.0000005,0 0,-13.9999997 z"
     id="path3786"
     inkscape:connector-curvature="0"
     sodipodi:nodetypes="ssccccssssscsssccccccc" />
  <path
     style="fill:#000000;fill-opacity:0.32156863;stroke:none"
     d="M 8 8 C 7.446 8 7 8.446 7 9 L 7 17 C 7 17.554 7.446 18 8 18 L 14 18 C 14.554 18 15 17.554 15 17 L 15 9 C 15 8.446 14.554 8 14 8 L 8 8 z M 9 9 L 13 9 L 13 10 L 14 10 L 14 16 C 14 16.554 13.554 17 13 17 L 9 17 C 8.446 17 8 16.554 8 16 L 8 10 C 8 9.446 8.446 9 9 9 z M 9.25 11 C 9.1115 11 9 11.1115 9 11.25 L 9 11.75 C 9 11.8885 9.1115 12 9.25 12 L 12.75 12 C 12.8885 12 13 11.8885 13 11.75 L 13 11.25 C 13 11.1115 12.8885 11 12.75 11 L 9.25 11 z M 9.25 13 C 9.1115 13 9 13.1115 9 13.25 L 9 13.75 C 9 13.8885 9.1115 14 9.25 14 L 12.75 14 C 12.8885 14 13 13.8885 13 13.75 L 13 13.25 C 13 13.1115 12.8885 13 12.75 13 L 9.25 13 z M 9.25 15 C 9.1115 15 9 15.1115 9 15.25 L 9 15.75 C 9 15.8885 9.1115 16 9.25 16 L 12.75 16 C 12.8885 16 13 15.8885 13 15.75 L 13 15.25 C 13 15.1115 12.8885 15 12.75 15 L 9.25 15 z "
     id="rect3767" />
</svg>

<svg xmlns="http://www.w3.org/2000/svg" viewBox="0 0 22 22">
 <path d="m 3 2 c -0.547 0 -1 0.41 -1 1 l 0 1 -1 0 c -0.502 0 -1 0.385 -1 1 0 4.594 0 9.406 0 14 0 0.546 0.493 1 1 1 l 20 0 c 0.516 0 1 -0.437 1 -1 l 0 -13 c 0 -0.577 -0.423 -1 -1 -1 l -2 0 0 -2 c 0 -0.487 -0.402 -1 -1 -1 z" style="visibility:visible;fill:#f57c00;fill-opacity:1;stroke:none;display:inline;color:#000;fill-rule:nonzero"/>
 <path d="m 3 2 c -0.544 0 -1 0.399 -1 1 l 0 1 -1 0 c -0.507 0 -1 0.396 -1 1 0 4.594 0 9.406 0 14 0 0.487 0.419 1 1 1 l 20 0 c 0.521 0 1 -0.443 1 -1 l 0 -13 c 0 -0.573 -0.394 -1 -1 -1 l -2 0 0 -2 c 0 -0.559 -0.457 -1 -1 -1 z m 10 3 0 1 8 0 0 13 -20 0 0 -14 z" style="visibility:visible;fill:#000;fill-opacity:0.322;stroke:none;display:inline;color:#000;fill-rule:nonzero"/>
 <path d="m 8 8 c -0.554 0 -1 0.446 -1 1 l 0 8 c 0 0.554 0.446 1 1 1 l 6 0 c 0.554 0 1 -0.446 1 -1 l 0 -8 c 0 -0.554 -0.446 -1 -1 -1 l -6 0 z m 1 1 l 4 0 l 0 1 l 1 0 l 0 6 c 0 0.554 -0.446 1 -1 1 l -4 0 c -0.554 0 -1 -0.446 -1 -1 l 0 -6 c 0 -0.554 0.446 -1 1 -1 z m 0.25 2 c -0.139 0 -0.25 0.111 -0.25 0.25 l 0 0.5 c 0 0.139 0.111 0.25 0.25 0.25 l 3.5 0 c 0.139 0 0.25 -0.111 0.25 -0.25 l 0 -0.5 c 0 -0.139 -0.111 -0.25 -0.25 -0.25 l -3.5 0 z m 0 2 c -0.139 0 -0.25 0.111 -0.25 0.25 l 0 0.5 c 0 0.139 0.111 0.25 0.25 0.25 l 3.5 0 c 0.139 0 0.25 -0.111 0.25 -0.25 l 0 -0.5 c 0 -0.139 -0.111 -0.25 -0.25 -0.25 l -3.5 0 z m 0 2 c -0.139 0 -0.25 0.111 -0.25 0.25 l 0 0.5 c 0 0.139 0.111 0.25 0.25 0.25 l 3.5 0 c 0.139 0 0.25 -0.111 0.25 -0.25 l 0 -0.5 c 0 -0.139 -0.111 -0.25 -0.25 -0.25 l -3.5 0 z" style="fill:#000;fill-opacity:0.322;stroke:none"/>
</svg>
